vendor/shopware/storefront/Resources/app/storefront/dist/assets/icon/default/package-open.svg

<svg xmlns="http://www.w3.org/2000/svg" width="24" height="24" viewBox="0 0 24 24">
  <path fill="#758CA3" fill-rule="evenodd" d="M13,3.69951446 L13,7.44575236 L15.4181269,8.95708169 L18.940874,7 L13,3.69951446 Z M13.4203427,10.0669618 L12,9.17924764 L10.5796573,10.0669618 L12,10.8560411 L13.4203427,10.0669618 Z M8.58187307,8.95708169 L11,7.44575236 L11,3.69951446 L5.05912603,7 L8.58187307,8.95708169 Z M21.9944838,6.89397056 L23.9284767,11.7289527 C24.1154611,12.1964138 23.9257558,12.7299935 23.4856429,12.9745007 L22,13.7998578 L22,17 C22,17.3631671 21.8031081,17.6977877 21.4856429,17.8741573 L12.4856429,22.8741573 C12.1836204,23.0419476 11.8163796,23.0419476 11.5143571,22.8741573 L2.51435707,17.8741573 C2.19689188,17.6977877 2,17.3631671 2,17 L2,13.7998578 L0.514357069,12.9745007 C0.0742441858,12.7299935 -0.115461145,12.1964138 0.0715233091,11.7289527 L2.00551616,6.89397056 C2.03734946,6.5889972 2.2069631,6.29661715 2.51435707,6.12584272 L11.5143571,1.12584272 C11.8163796,0.958052425 12.1836204,0.958052425 12.4856429,1.12584272 L21.4856429,6.12584272 C21.7930369,6.29661715 21.9626505,6.5889972 21.9944838,6.89397056 Z M20,14.9109689 L14.4856429,17.9745007 C13.9590544,18.2670499 13.2952475,18.0310444 13.0715233,17.4717341 L12,14.7929258 L10.9284767,17.4717341 C10.7047525,18.0310444 10.0409456,18.2670499 9.51435707,17.9745007 L4,14.9109689 L4,16.4115967 L12,20.8560411 L20,16.4115967 L20,14.9109689 Z M10.7444047,12.4464059 L3.50682224,8.42552681 L2.25559534,11.5535941 L9.49317776,15.5744732 L10.7444047,12.4464059 Z M13.2555953,12.4464059 L14.5068222,15.5744732 L21.7444047,11.5535941 L20.4931778,8.42552681 L13.2555953,12.4464059 Z"/>
</svg>

<svg xmlns="http://www.w3.org/2000/svg" width="24" height="24" viewBox="0 0 24 24"><path fill="#758CA3" fill-rule="evenodd" d="M13 3.6995v3.7463l2.4181 1.5113L18.941 7 13 3.6995zm.4203 6.3675L12 9.1792l-1.4203.8878L12 10.856l1.4203-.789zM8.582 8.957 11 7.4459V3.6995L5.0591 7 8.582 8.957zm13.4126-2.063 1.934 4.835a1 1 0 0 1-.4429 1.2455L22 13.7999V17a1 1 0 0 1-.5144.8742l-9 5a1 1 0 0 1-.9712 0l-9-5A1 1 0 0 1 2 17v-3.2001l-1.4856-.8254a1 1 0 0 1-.4429-1.2455l1.934-4.835c.0318-.305.2015-.5974.5089-.7682l9-5a1 1 0 0 1 .9712 0l9 5c.3074.1708.477.4632.5089.7682zM20 14.911l-5.5144 3.0635c-.5265.2925-1.1904.0565-1.414-.5028L12 14.793l-1.0715 2.6788c-.2237.5593-.8876.7953-1.4141.5028L4 14.911v1.5006l8 4.4444 8-4.4444V14.911zm-9.2556-2.4646L3.5068 8.4255l-1.2512 3.128 7.2376 4.021 1.2512-3.128zm2.5112 0 1.2512 3.128 7.2376-4.0208-1.2512-3.128-7.2376 4.0208z"/></svg>
